svgs/sharp-thin/hexagon-plus.svg

<svg xmlns="http://www.w3.org/2000/svg" viewBox="0 0 512 512"><!--! Font Awesome Pro 6.5.2 by @fontawesome - https://fontawesome.com License - https://fontawesome.com/license (Commercial License) Copyright 2024 Fonticons, Inc. --><path d="M18.4 256L137.3 48H374.7L493.6 256 374.7 464H137.3L18.4 256zM128 32L0 256 128 480H384L512 256 384 32H128zM264 160H248v8 80H168h-8v16h8 80v80 8h16v-8V264h80 8V248h-8H264V168v-8z"/></svg>

<svg xmlns="http://www.w3.org/2000/svg" viewBox="0 0 512 512"><!--! Font Awesome Pro 6.6.0 by @fontawesome - https://fontawesome.com License - https://fontawesome.com/license (Commercial License) Copyright 2024 Fonticons, Inc. --><path d="M18.4 256L137.3 48l237.4 0L493.6 256 374.7 464l-237.4 0L18.4 256zM128 32L0 256 128 480l256 0L512 256 384 32 128 32zM264 160l-16 0 0 8 0 80-80 0-8 0 0 16 8 0 80 0 0 80 0 8 16 0 0-8 0-80 80 0 8 0 0-16-8 0-80 0 0-80 0-8z"/></svg>
